img/vector-2.svg

<svg fill="none" height="66" viewBox="0 0 111 66" width="111" xmlns="http://www.w3.org/2000/svg"><path d="m88.4149 23.8281 21.2601 32.899c1.72 2.6616.88 6.2196-1.849 7.831-2.266 1.3387-5.161.9102-6.943-1.0279l-23.2907-25.3335c-11.9628-13.0118-30.3366-17.9941-47.2339-12.808l-9.8972 3.0376c-9.7726 2.9994-19.679737-4.2494-19.778708-14.4714l-.134742-13.9174626 54.85075 4.1609726c13.4691 1.02177 25.685 8.28459 33.0164 19.62969z" fill="#403add"/></svg>

<svg width="111" height="66" viewBox="0 0 111 66" fill="none" xmlns="http://www.w3.org/2000/svg">
<path d="M88.4149 23.8281L109.675 56.7271C111.395 59.3887 110.555 62.9467 107.826 64.5581C105.56 65.8968 102.665 65.4683 100.883 63.5302L77.5923 38.1967C65.6295 25.1849 47.2557 20.2026 30.3584 25.3887L20.4612 28.4263C10.6886 31.4257 0.781463 24.1769 0.682492 13.9549L0.54775 0.0374374L55.3985 4.19841C68.8676 5.22018 81.0835 12.483 88.4149 23.8281Z" fill="#403ADD"/>
</svg>
